X: 05046
T: KATIE McBRIDE
C: Bob McQuillen 2 June 81
B: Bob's Note Book 5 #46
%R: jig
Z: 2021 John Chambers <jc:trillian.mit.edu>
M: 6/8
L: 1/8
K: D
F \
| AFA BAF | Adf a2g | fef gag | f2d AFG || AFA BAF | Adf a2g | fed dfa | a2f e2f |
| gfg bag | fga a2g | fga fef | dBB B2d || AFA BAF | Adf afd | Bcd ecA | d3- d2 |]
[| F \
| AdB AFA | d2B A2G | FGA AFD | GFG EFG || AdB AFA | def e2d | efd Bed | c2A Ade |
| fdd edd | BdB AFD | DEF EFG | ABc d2e || fdf ecA | dBd cAF | GAB Agf | edc d2 |]
%%begintext align
%% Katie's a fun chick
%% who shows up at the dances a lot - She's
%% Janie's sister (Janie the fiddler) and I just
%% had to write her a tune, too!  Hope you like it, Katie!
%%endtext

%%sep 1 1 500

%%sep 1 1 500

